frontend/public/svg/files/file-mov.svg

<svg width="143" height="175" viewBox="0 0 143 175" fill="none" xmlns="http://www.w3.org/2000/svg">
<g clip-path="url(#clip0)">
<path d="M141.448 92.6626C141.629 109.167 141.87 125.67 141.958 142.175C141.989 148.009 141.525 153.843 141.498 159.678C141.464 168.057 135.058 173.194 127.42 173.361C110.807 173.726 94.1888 174.087 77.575 174.018C60.5101 173.946 43.4401 173.435 26.3773 172.946C22.0039 172.743 17.6469 172.273 13.3307 171.539C8.36222 170.783 3.46995 164.882 3.18182 159.479C2.91929 154.552 2.70579 149.618 2.64278 144.685C2.31898 119.418 2.02714 94.1518 1.76723 68.8848C1.60577 53.9486 1.54406 39.0116 1.30318 24.0772C1.23427 19.7894 0.961976 15.4943 2.70783 11.4854C3.63909 9.21375 4.91014 7.09679 6.47729 5.20691C8.29599 3.12697 10.9547 2.33853 13.7723 2.26108C19.9419 2.0924 26.1279 2.05787 32.285 1.64897C53.5084 0.239157 74.7278 1.35684 95.9498 1.50123C98.0592 1.46584 100.154 1.86079 102.105 2.662C104.057 3.46322 105.824 4.65395 107.3 6.1613C114.13 12.6551 121.461 18.621 128.547 24.8471C131.16 27.1442 133.57 29.6783 136.249 31.8915C139.218 34.3436 140.098 37.4809 140.153 41.1315C140.381 56.5141 140.681 71.8954 140.946 87.2767C140.977 89.0724 140.95 90.8688 140.95 92.6646L141.448 92.6626ZM94.1527 9.95095C92.5513 9.79999 91.2347 9.58806 89.9148 9.56443C75.4353 9.3019 60.9548 9.05964 46.4739 8.83826C40.0798 8.74244 33.6851 8.71349 27.2898 8.67477C24.0409 8.65508 20.7847 8.55144 17.5437 8.71553C12.9015 8.94918 11.5323 10.2909 10.7072 14.9725C9.94898 19.0605 9.7696 23.2348 10.1743 27.3727C10.4552 30.0466 10.5621 32.7469 10.589 35.4372C10.6547 42.1725 10.6431 48.9093 10.649 55.6453C10.6796 88.4266 10.7092 121.208 10.738 153.989C10.7166 154.775 10.7566 155.561 10.8575 156.341C11.6701 161.45 14.3584 164.581 19.9412 164.808C41.7178 165.686 63.4947 165.681 85.2777 165.303C96.167 165.115 107.058 165.034 117.948 164.91C120.639 164.879 123.336 164.985 126.021 164.844C130.446 164.607 132.79 162.186 132.739 157.756C132.678 152.374 132.332 146.996 132.236 141.614C132.14 136.232 132.325 130.833 132.17 125.449C131.762 111.313 131.074 97.1834 130.805 83.0459C130.583 71.3743 130.805 59.6948 130.815 48.0192C130.815 47.0741 130.704 46.1288 130.67 45.6044C123.183 45.6044 116.113 45.6663 109.045 45.5678C106.804 45.5393 104.573 45.2709 102.389 44.7676C98.8515 43.942 96.7446 41.7149 96.6409 37.8937C96.6087 36.6604 96.5096 35.4273 96.3967 34.198C95.6689 26.2681 94.9305 18.3409 94.1527 9.95095ZM106.256 37.4389L126.394 36.1977L102.816 14.7947C104.033 22.8072 105.121 29.9718 106.256 37.4389Z" fill="black"/>
<path d="M43.9204 116.25C44.9705 113.733 45.9893 111.269 47.0191 108.809C47.4874 107.549 48.0215 106.313 48.6192 105.108C50.6171 101.463 54.2518 101.293 56.6783 104.695C57.0795 105.236 57.4147 105.824 57.6766 106.445C60.7548 114.166 63.3677 122.02 64.1422 130.36C64.2754 131.813 64.2702 133.276 64.1264 134.728C63.8862 137.151 62.6332 138.506 60.7259 138.666C58.8186 138.825 57.2736 137.729 56.6376 135.394C55.8139 132.369 55.2128 129.285 54.5125 126.227C53.8384 123.285 53.1602 120.345 52.3319 116.743C51.6841 118.055 51.3475 118.8 50.9603 119.515C50.2597 121.039 49.433 122.501 48.4891 123.887C48.0626 124.486 47.517 124.991 46.8864 125.369C46.2558 125.747 45.554 125.99 44.8247 126.084C44.0955 126.178 43.3548 126.12 42.649 125.914C41.9433 125.708 41.2875 125.358 40.7233 124.887C39.4429 123.8 38.2626 122.6 37.1968 121.301C34.8753 118.766 32.5887 116.2 30.2876 113.647L29.6088 113.943C29.6088 115.898 29.5316 117.856 29.6248 119.806C29.8388 124.285 30.174 128.758 30.3866 133.238C30.5343 136.357 29.3535 138.152 27.2132 138.307C25.0565 138.464 23.637 136.749 23.5845 133.612C23.4563 125.984 23.387 118.357 23.3765 110.728C23.4128 109.158 23.6519 107.598 24.0879 106.09C24.6183 104.106 25.539 103.665 27.619 104.09C30.3915 104.629 32.9593 105.929 35.0355 107.843C37.9181 110.511 40.7391 113.232 43.9204 116.25Z" fill="black"/>
<path d="M69.3604 116.549C69.4608 115.486 69.5087 114.36 69.6826 113.254C70.5477 107.759 72.961 105.494 78.5392 104.883C81.6319 104.548 84.7541 105.135 87.5127 106.571C90.2719 108.007 92.5448 110.227 94.0452 112.952C96.8858 118.141 96.2768 125.927 92.6669 130.494C90.9506 132.686 88.49 134.173 85.7511 134.672C83.0122 135.171 80.1847 134.647 77.8061 133.2C71.5125 129.457 69.5684 123.469 69.3604 116.549ZM76.5958 111.862C74.0663 116.67 75.0252 122.823 78.7775 126.109C79.7095 126.897 80.7747 127.513 81.9233 127.927C82.8192 128.266 83.8031 128.295 84.718 128.009C85.6323 127.724 86.4251 127.14 86.9686 126.351C89.9674 122.047 89.7593 115.156 83.2892 112.331C81.1744 111.425 78.8169 111.259 76.5958 111.859V111.862Z" fill="black"/>
<path d="M108.063 118.811C109.529 114.972 110.968 111.121 112.479 107.299C112.957 106.043 113.557 104.837 114.269 103.697C115.47 101.828 117.15 101.232 118.845 101.874C119.721 102.151 120.454 102.759 120.89 103.567C121.325 104.376 121.429 105.322 121.179 106.206C118.939 114.524 116.434 122.769 112.498 130.481C112.086 131.418 111.389 132.202 110.506 132.721C109.623 133.239 108.598 133.466 107.579 133.368C105.08 133.175 103.864 131.426 103.209 129.289C102.027 125.437 101.05 121.522 99.8547 117.675C98.9607 114.797 97.8581 111.984 96.8493 109.143C96.6629 108.618 96.2619 108.056 96.3446 107.578C96.5034 106.659 96.6911 105.432 97.3245 104.992C97.7472 104.76 98.2184 104.632 98.7002 104.618C99.1819 104.605 99.6597 104.706 100.095 104.913C101.318 105.684 102.332 106.746 103.044 108.004C104.297 110.367 105.227 112.901 106.245 115.383C106.704 116.499 107.053 117.664 107.452 118.808L108.063 118.811Z" fill="black"/>
</g>
<defs>
<clipPath id="clip0">
<rect width="141.769" height="173.93" fill="white" transform="translate(0.602539 0.574219)"/>
</clipPath>
</defs>
</svg>

<svg xmlns="http://www.w3.org/2000/svg" width="143" height="175" fill="none" viewBox="0 0 143 175"><g fill="#000" clip-path="url(#a)"><path d="M141.448 92.663c.181 16.504.422 33.007.51 49.512.031 5.834-.433 11.668-.46 17.503-.034 8.379-6.44 13.516-14.078 13.683-16.613.365-33.231.726-49.845.657-17.065-.072-34.135-.583-51.198-1.072-4.373-.203-8.73-.673-13.046-1.407-4.969-.756-9.861-6.657-10.15-12.06-.262-4.927-.475-9.861-.538-14.794a29983 29983 0 0 1-.876-75.8c-.161-14.936-.223-29.873-.464-44.808-.069-4.288-.341-8.583 1.405-12.592a24.2 24.2 0 0 1 3.77-6.278c1.818-2.08 4.477-2.868 7.294-2.946 6.17-.169 12.356-.203 18.513-.612 21.223-1.41 42.443-.292 63.665-.148a15.52 15.52 0 0 1 11.35 4.66c6.83 6.494 14.161 12.46 21.247 18.686 2.613 2.297 5.023 4.831 7.702 7.044 2.969 2.453 3.849 5.59 3.904 9.24.228 15.383.528 30.764.793 46.146.031 1.795.004 3.592.004 5.388zM94.153 9.95c-1.602-.151-2.918-.363-4.238-.387q-21.72-.393-43.441-.726c-6.394-.096-12.789-.125-19.184-.163-3.25-.02-6.505-.124-9.746.04-4.642.234-6.012 1.576-6.837 6.258a44.3 44.3 0 0 0-.533 12.4c.281 2.674.388 5.374.415 8.064.066 6.736.054 13.472.06 20.208l.089 98.344q-.031 1.18.12 2.352c.812 5.109 3.5 8.24 9.083 8.467 21.777.878 43.554.873 65.337.495 10.889-.188 21.78-.269 32.67-.393 2.691-.031 5.388.075 8.073-.066 4.425-.237 6.769-2.658 6.718-7.088-.061-5.382-.407-10.76-.503-16.142s.089-10.781-.066-16.165c-.408-14.136-1.096-28.266-1.365-42.403-.222-11.672 0-23.351.01-35.027 0-.945-.111-1.89-.145-2.415-7.487 0-14.557.062-21.625-.036a31.4 31.4 0 0 1-6.656-.8c-3.537-.826-5.644-3.053-5.748-6.874a57 57 0 0 0-.244-3.696c-.728-7.93-1.467-15.857-2.244-24.247m12.103 27.488 20.138-1.241-23.578-21.403z"/><path d="M43.92 116.25c1.05-2.517 2.07-4.981 3.1-7.441a39 39 0 0 1 1.6-3.701c1.997-3.645 5.632-3.815 8.058-.413.402.541.737 1.129.999 1.75 3.078 7.721 5.69 15.575 6.465 23.915a23 23 0 0 1-.016 4.368c-.24 2.423-1.493 3.778-3.4 3.938-1.907.159-3.452-.937-4.088-3.272-.824-3.025-1.425-6.109-2.125-9.167-.675-2.942-1.353-5.882-2.181-9.484-.648 1.312-.985 2.057-1.372 2.772a30 30 0 0 1-2.47 4.372 5.34 5.34 0 0 1-5.841 2.027 5.3 5.3 0 0 1-1.926-1.027 28 28 0 0 1-3.526-3.586c-2.322-2.535-4.608-5.101-6.91-7.654l-.678.296c0 1.955-.077 3.913.016 5.863.214 4.479.549 8.952.762 13.432.147 3.119-1.033 4.914-3.174 5.069-2.157.157-3.576-1.558-3.629-4.695q-.192-11.441-.207-22.884c.036-1.57.275-3.13.71-4.638.531-1.984 1.452-2.425 3.532-2a15.23 15.23 0 0 1 7.416 3.753c2.883 2.668 5.704 5.389 8.885 8.407m25.44.299c.1-1.063.149-2.189.323-3.295.865-5.495 3.278-7.76 8.856-8.371a15.76 15.76 0 0 1 15.506 8.069c2.84 5.189 2.232 12.975-1.378 17.542a11.37 11.37 0 0 1-14.86 2.706c-6.294-3.743-8.239-9.731-8.447-16.651m7.236-4.687c-2.53 4.808-1.57 10.961 2.182 14.247a10.3 10.3 0 0 0 3.145 1.818 4.284 4.284 0 0 0 5.046-1.576c2.998-4.304 2.79-11.195-3.68-14.02a10.22 10.22 0 0 0-6.693-.472zm31.467 6.949c1.466-3.839 2.905-7.69 4.416-11.512a20.7 20.7 0 0 1 1.79-3.602c1.201-1.869 2.881-2.465 4.576-1.823a3.536 3.536 0 0 1 2.334 4.332c-2.24 8.318-4.745 16.563-8.681 24.275a4.87 4.87 0 0 1-4.919 2.887c-2.499-.193-3.715-1.942-4.37-4.079-1.182-3.852-2.159-7.767-3.354-11.614-.894-2.878-1.997-5.691-3.006-8.532-.186-.525-.587-1.087-.504-1.565.158-.919.346-2.146.98-2.586a3.04 3.04 0 0 1 2.77-.079 8.75 8.75 0 0 1 2.949 3.091c1.253 2.363 2.183 4.897 3.201 7.379.459 1.116.808 2.281 1.207 3.425z"/></g><defs><clipPath id="a"><path fill="#fff" d="M.603.574h141.769v173.93H.602z"/></clipPath></defs></svg>
